;FLAVOR:Marlin
;TIME:2833
;Filament used: 2.32591m
;Layer height: 0.2
;MINX:56.702
;MINY:121.702
;MINZ:0.2
;MAXX:113.3
;MAXY:160.3
;MAXZ:27
;Generated with Cura_SteamEngine 4.7.1
M140 S70
M105
M190 S70
M104 S240
M105
M109 S240
M82 ;absolute extrusion mode
M107 ;turn off fan
G28 X0 Y0 Z0 ; home X, Y and Z axis end-stops
G0 X0 Y35 F9000 ; Go to front
G0 Z0.15 ; Drop to bed
G92 E0 ; zero the extruded length
G1 X40 E20 F500 ; Extrude 25mm of filament in a 4cm line
G92 E0 ; zero the extruded length
G1 E-1 F500 ; Retract a little
G1 X80 F4000 ; Quickly wipe away from the filament line
G1 Z0.3 ; Raise and begin printing.
G92 E0
G92 E0
G1 F1500 E-6.5
;LAYER_COUNT:135
;LAYER:0
M107
;MESH:CoperturaVitiGiuntoBraccioUno1.stl
G0 F7200 X60.802 Y139.896 Z0.2
;TYPE:WALL-INNER
G1 F1500 E0
G1 F750 X60.858 Y140.377 E0.01611
G1 X61.013 Y140.821 E0.03175
G1 X61.263 Y141.219 E0.04738
G1 X61.596 Y141.552 E0.06304
G1 X61.995 Y141.804 E0.07874
G1 X62.44 Y141.96 E0.09442
G1 X62.908 Y142.011 E0.11008
G1 X63.376 Y141.96 E0.12574
G1 X63.821 Y141.804 E0.14142
G1 X64.22 Y141.553 E0.1571
G1 X64.553 Y141.22 E0.17276
G1 X64.803 Y140.821 E0.18843
G1 X64.964 Y140.365 E0.20451
G1 X65.003 Y139.823 E0.22258
G1 X64.959 Y139.439 E0.23544
G1 X64.804 Y138.995 E0.25108
G1 X64.552 Y138.596 E0.26678
G1 X64.219 Y138.263 E0.28244
G1 X63.821 Y138.013 E0.29807
G1 X63.377 Y137.858 E0.31371
G1 X62.908 Y137.804 E0.32942
G1 X62.439 Y137.858 E0.34512
G1 X61.995 Y138.013 E0.36076
G1 X61.597 Y138.263 E0.37639
G1 X61.263 Y138.597 E0.3921
G1 X61.013 Y138.995 E0.40773
G1 X60.886 Y139.357 E0.42049
G1 X60.802 Y139.896 E0.43864
G0 F7200 X61.206 Y139.904
;TYPE:WALL-OUTER
G1 F750 X61.25 Y140.287 E0.45146
G1 X61.376 Y140.646 E0.46411
G1 X61.578 Y140.968 E0.47676
G1 X61.847 Y141.238 E0.48943
G1 X62.17 Y141.441 E0.50212
G1 X62.529 Y141.567 E0.51478
G1 X62.908 Y141.609 E0.52746
G1 X63.287 Y141.567 E0.54014
G1 X63.646 Y141.441 E0.5528
G1 X63.969 Y141.238 E0.56548
G1 X64.238 Y140.969 E0.57814
G1 X64.441 Y140.646 E0.59083
G1 X64.569 Y140.283 E0.60363
G1 X64.601 Y139.831 E0.6187
G1 X64.567 Y139.529 E0.62881
G1 X64.441 Y139.17 E0.64146
G1 X64.238 Y138.847 E0.65415
G1 X63.968 Y138.578 E0.66683
G1 X63.646 Y138.376 E0.67947
G1 X63.287 Y138.25 E0.69212
G1 X62.908 Y138.207 E0.70481
G1 X62.529 Y138.25 E0.7175
G1 X62.17 Y138.376 E0.73015
G1 X61.848 Y138.578 E0.74279
G1 X61.578 Y138.848 E0.75549
G1 X61.376 Y139.17 E0.76814
G1 X61.276 Y139.455 E0.77818
G1 X61.206 Y139.904 E0.7933
G0 F7200 X61.228 Y140.102
G0 X60.791 Y140.151
G0 X60.732 Y140.157
G0 X61.232 Y141.243
G0 X61.978 Y141.84
G0 X75.369 Y141.282
G0 X75.447 Y141.22
;TYPE:WALL-INNER
G1 F750 X75.78 Y141.553 E0.80896
G1 X76.179 Y141.804 E0.82464
G1 X76.624 Y141.96 E0.84032
G1 X77.092 Y142.011 E0.85598
G1 X77.56 Y141.96 E0.87164
G1 X78.005 Y141.804 E0.88732
G1 X78.404 Y141.552 E0.90302
G1 X78.737 Y141.219 E0.91868
G1 X78.986 Y140.821 E0.9343
G1 X79.147 Y140.366 E0.95035
G1 X79.187 Y139.822 E0.96849
G1 X79.142 Y139.439 E0.98132
G1 X78.987 Y138.995 E0.99696
G1 X78.737 Y138.597 E1.01259
G1 X78.403 Y138.263 E1.0283
G1 X78.005 Y138.013 E1.04393
G1 X77.561 Y137.858 E1.05958
G1 X77.092 Y137.804 E1.07528
G1 X76.623 Y137.858 E1.09098
G1 X76.179 Y138.013 E1.10662
G1 X75.781 Y138.263 E1.12225
G1 X75.448 Y138.596 E1.13792
G1 X75.196 Y138.995 E1.15361
G1 X75.069 Y139.359 E1.16644
G1 X74.987 Y139.896 E1.1845
G1 X75.041 Y140.377 E1.2006
G1 X75.196 Y140.821 E1.21624
G1 X75.447 Y141.22 E1.23192
G0 F7200 X75.762 Y140.969
;TYPE:WALL-OUTER
G1 F750 X76.031 Y141.238 E1.24457
G1 X76.354 Y141.441 E1.25726
G1 X76.713 Y141.567 E1.26992
G1 X77.092 Y141.609 E1.2826
G1 X77.471 Y141.567 E1.29528
G1 X77.83 Y141.441 E1.30794
G1 X78.153 Y141.238 E1.32063
G1 X78.422 Y140.968 E1.3333
G1 X78.624 Y140.646 E1.34594
G1 X78.752 Y140.283 E1.35875
G1 X78.785 Y139.831 E1.37382
G1 X78.75 Y139.529 E1.38393
G1 X78.624 Y139.17 E1.39659
G1 X78.422 Y138.848 E1.40923
G1 X78.152 Y138.578 E1.42193
G1 X77.83 Y138.376 E1.43457
G1 X77.471 Y138.25 E1.44723
G1 X77.092 Y138.207 E1.45991
G1 X76.713 Y138.25 E1.4726
G1 X76.354 Y138.376 E1.48525
G1 X76.032 Y138.578 E1.4979
G1 X75.762 Y138.847 E1.51057
G1 X75.559 Y139.17 E1.52326
G1 X75.459 Y139.456 E1.53334
G1 X75.39 Y139.904 E1.54842
G1 X75.433 Y140.287 E1.56123
G1 X75.559 Y140.646 E1.57389
G1 X75.762 Y140.969 E1.58658
G0 F7200 X75.903 Y141.11
G0 X75.592 Y141.421
G0 X75.55 Y141.463
G0 X72.147 Y156.411
G0 X72.05 Y156.433
;TYPE:WALL-INNER
G1 F750 X71.895 Y155.99 E1.60219
G1 X71.645 Y155.59 E1.61788
G1 X71.311 Y155.257 E1.63356
G1 X70.913 Y155.007 E1.64919
G1 X70.469 Y154.851 E1.66485
G1 X70 Y154.797 E1.68055
G1 X69.531 Y154.851 E1.69625
G1 X69.087 Y155.007 E1.7119
G1 X68.689 Y155.257 E1.72754
G1 X68.356 Y155.59 E1.7432
G1 X68.104 Y155.99 E1.75892
G1 X67.978 Y156.352 E1.77167
G1 X67.894 Y156.889 E1.78975
G1 X67.95 Y157.37 E1.80586
G1 X68.105 Y157.813 E1.82147
G1 X68.355 Y158.213 E1.83716
G1 X68.689 Y158.546 E1.85284
G1 X69.087 Y158.796 E1.86847
G1 X69.532 Y158.953 E1.88417
G1 X70 Y159.004 E1.89983
G1 X70.468 Y158.953 E1.91549
G1 X70.913 Y158.796 E1.93118
G1 X71.311 Y158.546 E1.94681
G1 X71.645 Y158.213 E1.9625
G1 X71.895 Y157.814 E1.97816
G1 X72.055 Y157.359 E1.9942
G1 X72.095 Y156.815 E2.01234
G1 X72.05 Y156.433 E2.02514
G0 F7200 X71.658 Y156.523
;TYPE:WALL-OUTER
G1 F750 X71.532 Y156.164 E2.03779
G1 X71.33 Y155.841 E2.05046
G1 X71.06 Y155.572 E2.06314
G1 X70.738 Y155.369 E2.0758
G1 X70.379 Y155.243 E2.08845
G1 X70 Y155.2 E2.10114
G1 X69.621 Y155.243 E2.11383
G1 X69.262 Y155.369 E2.12648
G1 X68.94 Y155.572 E2.13914
G1 X68.67 Y155.841 E2.15182
G1 X68.467 Y156.164 E2.16451
G1 X68.368 Y156.449 E2.17454
G1 X68.298 Y156.897 E2.18962
G1 X68.342 Y157.28 E2.20245
G1 X68.468 Y157.639 E2.2151
G1 X68.67 Y157.962 E2.22777
G1 X68.94 Y158.231 E2.24045
G1 X69.262 Y158.434 E2.25311
G1 X69.621 Y158.56 E2.26576
G1 X70 Y158.602 E2.27845
G1 X70.379 Y158.56 E2.29113
G1 X70.738 Y158.434 E2.30378
G1 X71.06 Y158.231 E2.31644
G1 X71.33 Y157.962 E2.32912
G1 X71.532 Y157.639 E2.34179
G1 X71.66 Y157.276 E2.35459
G1 X71.693 Y156.824 E2.36967
G1 X71.658 Y156.523 E2.37974
G0 F7200 X71.592 Y156.335
G0 X72.008 Y156.19
G0 X72.064 Y156.171
G0 X71.335 Y155.226
G0 X70.477 Y154.813
G0 X61.365 Y156.45
G0 X61.298 Y156.524
;TYPE:WALL-INNER
G1 F750 X60.892 Y156.132 E2.39852
G1 X60.304 Y155.508 E2.42703
G1 X59.936 Y155.067 E2.44614
G1 X59.421 Y154.383 E2.47461
G1 X59.099 Y153.895 E2.49406
G1 X58.674 Y153.175 E2.52187
G1 X58.402 Y152.645 E2.54168
G1 X58.06 Y151.883 E2.56946
G1 X57.855 Y151.342 E2.5887
G1 X57.59 Y150.521 E2.6174
G1 X57.45 Y149.976 E2.63611
G1 X57.277 Y149.13 E2.66483
G1 X57.195 Y148.549 E2.68435
G1 X57.121 Y147.727 E2.7118
G1 X57.102 Y147.131 E2.73163
G1 X57.121 Y146.271 E2.76024
G1 X57.165 Y145.724 E2.77849
G1 X57.278 Y144.866 E2.80728
G1 X57.389 Y144.293 E2.82669
G1 X57.588 Y143.485 E2.85437
G1 X57.767 Y142.913 E2.8743
G1 X58.065 Y142.104 E2.90298
G1 X58.285 Y141.604 E2.92115
G1 X58.683 Y140.809 E2.95072
G1 X58.954 Y140.339 E2.96876
G1 X59.429 Y139.606 E2.99781
G1 X59.758 Y139.159 E3.01627
G1 X60.319 Y138.475 E3.04569
G1 X60.71 Y138.051 E3.06488
G1 X61.317 Y137.459 E3.09308
G1 X61.743 Y137.09 E3.11182
G1 X62.415 Y136.566 E3.14017
G1 X62.905 Y136.229 E3.15995
G1 X63.622 Y135.786 E3.18798
G1 X64.115 Y135.523 E3.20656
G1 X64.918 Y135.143 E3.23611
G1 X65.439 Y134.934 E3.25478
G1 X66.241 Y134.66 E3.28297
G1 X66.798 Y134.505 E3.3022
G1 X67.622 Y134.333 E3.3302
G1 X68.101 Y134.241 E3.34642
G1 X68.677 Y134.169 E3.36573
G1 X69.52 Y134.109 E3.39384
G1 X70.092 Y134.102 E3.41286
G1 X70.964 Y134.137 E3.44189
G1 X71.523 Y134.192 E3.46057
G1 X72.393 Y134.336 E3.4899
G1 X72.935 Y134.441 E3.50826
G1 X73.768 Y134.663 E3.53694
G1 X74.302 Y134.841 E3.55566
G1 X75.101 Y135.152 E3.58417
G1 X75.639 Y135.4 E3.60388
G1 X76.384 Y135.79 E3.63185
G1 X76.862 Y136.079 E3.65042
G1 X77.589 Y136.569 E3.67958
G1 X78.042 Y136.917 E3.69858
G1 X78.702 Y137.476 E3.72735
G1 X79.096 Y137.856 E3.74556
G1 X79.698 Y138.494 E3.77473
G1 X80.058 Y138.926 E3.79344
G1 X80.586 Y139.628 E3.82265
G1 X80.886 Y140.081 E3.84072
G1 X81.32 Y140.814 E3.86906
G1 X81.598 Y141.355 E3.88929
G1 X81.94 Y142.117 E3.91707
G1 X82.144 Y142.654 E3.93617
G1 X82.41 Y143.479 E3.965
G1 X82.55 Y144.024 E3.98372
G1 X82.722 Y144.864 E4.01224
G1 X82.804 Y145.441 E4.03162
G1 X82.879 Y146.271 E4.05934
G1 X82.898 Y146.869 E4.07924
G1 X82.879 Y147.719 E4.10752
G1 X82.835 Y148.276 E4.1261
G1 X82.722 Y149.134 E4.15488
G1 X82.611 Y149.707 E4.1743
G1 X82.412 Y150.515 E4.20197
G1 X82.233 Y151.087 E4.22191
G1 X81.94 Y151.885 E4.25018
G1 X81.715 Y152.396 E4.26875
G1 X81.319 Y153.188 E4.2982
G1 X81.046 Y153.66 E4.31634
G1 X80.563 Y154.404 E4.34584
G1 X80.242 Y154.841 E4.36388
G1 X79.688 Y155.517 E4.39295
G1 X79.295 Y155.943 E4.41222
G1 X78.69 Y156.535 E4.44038
G1 X78.257 Y156.91 E4.45943
G1 X77.586 Y157.433 E4.48772
G1 X77.096 Y157.77 E4.5075
G1 X76.389 Y158.207 E4.53515
G1 X75.867 Y158.486 E4.55483
G1 X75.101 Y158.849 E4.58303
G1 X74.561 Y159.066 E4.60238
G1 X73.759 Y159.34 E4.63057
G1 X73.202 Y159.495 E4.6498
G1 X72.378 Y159.667 E4.6778
G1 X71.899 Y159.759 E4.69402
G1 X71.328 Y159.83 E4.71316
G1 X70.855 Y159.869 E4.72895
G1 X70.095 Y159.897 E4.75424
G1 X69.523 Y159.891 E4.77327
G1 X68.941 Y159.854 E4.79266
G1 X68.104 Y159.76 E4.82068
G1 X67.065 Y159.559 E4.85587
G1 X66.231 Y159.337 E4.88458
G1 X65.698 Y159.159 E4.90327
G1 X64.899 Y158.848 E4.93179
G1 X64.361 Y158.6 E4.95149
G1 X63.61 Y158.207 E4.97968
G1 X63.138 Y157.921 E4.99804
G1 X62.408 Y157.429 E5.02732
G1 X61.958 Y157.083 E5.0462
G1 X61.298 Y156.524 E5.07496
G0 F7200 X61.039 Y156.829
;TYPE:WALL-OUTER
G1 F750 X60.606 Y156.412 E5.09496
G1 X60.004 Y155.773 E5.12416
G1 X59.622 Y155.314 E5.14402
G1 X59.093 Y154.612 E5.17326
G1 X58.765 Y154.115 E5.19306
G1 X58.318 Y153.358 E5.2223
G1 X58.046 Y152.828 E5.24211
G1 X57.691 Y152.038 E5.27092
G1 X57.475 Y151.469 E5.29116
G1 X57.209 Y150.644 E5.31999
G1 X57.058 Y150.056 E5.34019
G1 X56.883 Y149.2 E5.36925
G1 X56.799 Y148.605 E5.38923
G1 X56.721 Y147.741 E5.41808
G1 X56.702 Y147.144 E5.43795
G1 X56.721 Y146.256 E5.46749
G1 X56.768 Y145.672 E5.48698
G1 X56.882 Y144.803 E5.51613
G1 X56.996 Y144.217 E5.53599
G1 X57.206 Y143.366 E5.56514
G1 X57.385 Y142.794 E5.58507
G1 X57.692 Y141.96 E5.61463
G1 X57.927 Y141.425 E5.63407
G1 X58.325 Y140.63 E5.66364
G1 X58.618 Y140.122 E5.68314
G1 X59.098 Y139.381 E5.71251
G1 X59.449 Y138.905 E5.73218
G1 X60.012 Y138.218 E5.76172
G1 X60.416 Y137.78 E5.78154
G1 X61.045 Y137.166 E5.81078
G1 X61.487 Y136.783 E5.83023
G1 X62.188 Y136.236 E5.8598
G1 X62.678 Y135.899 E5.87958
G1 X63.427 Y135.437 E5.90885
G1 X63.944 Y135.161 E5.92834
G1 X64.747 Y134.781 E5.95789
G1 X65.299 Y134.56 E5.97767
G1 X66.12 Y134.279 E6.00653
G1 X66.702 Y134.117 E6.02662
G1 X67.546 Y133.94 E6.0553
G1 X68.035 Y133.846 E6.07187
G1 X68.639 Y133.771 E6.09211
G1 X69.503 Y133.709 E6.12092
G1 X70.103 Y133.702 E6.14088
G1 X70.986 Y133.737 E6.17027
G1 X71.58 Y133.796 E6.19012
G1 X72.462 Y133.942 E6.21986
G1 X73.027 Y134.051 E6.239
G1 X73.871 Y134.276 E6.26805
G1 X74.447 Y134.468 E6.28824
G1 X75.255 Y134.782 E6.31707
G1 X75.807 Y135.037 E6.3373
G1 X76.585 Y135.444 E6.3665
G1 X77.086 Y135.747 E6.38598
G1 X77.813 Y136.237 E6.41514
G1 X78.295 Y136.607 E6.43535
G1 X78.961 Y137.171 E6.46437
G1 X79.387 Y137.581 E6.48404
G1 X79.989 Y138.219 E6.51321
G1 X80.378 Y138.686 E6.53343
G1 X80.906 Y139.388 E6.56264
G1 X81.23 Y139.877 E6.58215
G1 X81.676 Y140.631 E6.61129
G1 X81.954 Y141.172 E6.63152
G1 X82.309 Y141.962 E6.66033
G1 X82.525 Y142.531 E6.68057
G1 X82.791 Y143.356 E6.7094
G1 X82.942 Y143.944 E6.72959
G1 X83.116 Y144.793 E6.75842
G1 X83.2 Y145.385 E6.7783
G1 X83.279 Y146.258 E6.80746
G1 X83.298 Y146.856 E6.82736
G1 X83.279 Y147.742 E6.85683
G1 X83.232 Y148.328 E6.87639
G1 X83.118 Y149.197 E6.90554
G1 X83.004 Y149.783 E6.92539
G1 X82.794 Y150.634 E6.95455
G1 X82.615 Y151.206 E6.97448
G1 X82.309 Y152.038 E7.00397
G1 X82.073 Y152.575 E7.02348
G1 X81.676 Y153.369 E7.053
G1 X81.382 Y153.878 E7.07255
G1 X80.899 Y154.622 E7.10206
G1 X80.551 Y155.095 E7.12159
G1 X79.99 Y155.779 E7.15101
G1 X79.586 Y156.218 E7.17085
G1 X78.957 Y156.832 E7.20009
G1 X78.513 Y157.217 E7.21963
G1 X77.813 Y157.763 E7.24916
G1 X77.323 Y158.1 E7.26894
G1 X76.578 Y158.56 E7.29806
G1 X76.056 Y158.839 E7.31775
G1 X75.256 Y159.218 E7.34719
G1 X74.701 Y159.44 E7.36707
G1 X73.88 Y159.721 E7.39593
G1 X73.298 Y159.883 E7.41603
G1 X72.454 Y160.06 E7.44471
G1 X71.965 Y160.154 E7.46127
G1 X71.361 Y160.229 E7.48152
G1 X70.881 Y160.269 E7.49754
G1 X70.105 Y160.297 E7.52336
G1 X69.513 Y160.291 E7.54305
G1 X68.911 Y160.253 E7.56312
G1 X68.034 Y160.154 E7.59247
G1 X66.973 Y159.949 E7.62841
G1 X66.128 Y159.724 E7.6575
G1 X65.553 Y159.532 E7.67766
G1 X64.745 Y159.218 E7.70649
G1 X64.193 Y158.963 E7.72671
G1 X63.415 Y158.556 E7.75592
G1 X62.914 Y158.253 E7.77539
G1 X62.184 Y157.761 E7.80467
G1 X61.705 Y157.393 E7.82476
G1 X61.039 Y156.829 E7.85379
G0 F7200 X60.895 Y156.691
G0 X61.201 Y156.374
G0 X61.562 Y156.236
;TYPE:SKIN
G1 F750 X61.163 Y155.851 E7.87223
G1 X60.596 Y155.249 E7.89974
G1 X60.236 Y154.817 E7.91844
G1 X59.74 Y154.158 E7.94587
G1 X59.425 Y153.68 E7.96491
G1 X59.01 Y152.976 E7.99209
G1 X58.749 Y152.467 E8.01112
G1 X58.425 Y151.745 E8.03744
G1 X58.22 Y151.204 E8.05668
G1 X57.965 Y150.413 E8.08432
G1 X57.828 Y149.879 E8.10266
G1 X57.659 Y149.052 E8.13073
G1 X57.581 Y148.495 E8.14944
G1 X57.511 Y147.709 E8.17569
G1 X57.492 Y147.139 E8.19466
G1 X57.511 Y146.279 E8.22327
G1 X57.551 Y145.775 E8.24008
G1 X57.661 Y144.94 E8.26809
G1 X57.769 Y144.377 E8.28716
G1 X57.96 Y143.602 E8.31371
G1 X58.133 Y143.048 E8.33301
G1 X58.427 Y142.25 E8.3613
G1 X58.634 Y141.779 E8.37841
G1 X59.027 Y140.994 E8.40761
G1 X59.286 Y140.543 E8.42491
G1 X59.75 Y139.828 E8.45326
G1 X60.066 Y139.399 E8.47098
G1 X60.614 Y138.731 E8.49972
G1 X60.944 Y138.373 E8.51591
G1 X60.66 Y138.825 E8.53366
G1 X60.506 Y139.261 E8.54904
G1 X60.408 Y139.888 E8.57015
G1 X60.476 Y140.465 E8.58947
G1 X60.66 Y140.991 E8.60801
G1 X60.956 Y141.463 E8.62654
G1 X61.351 Y141.858 E8.64512
G1 X61.824 Y142.157 E8.66373
G1 X62.354 Y142.343 E8.68241
G1 X62.908 Y142.403 E8.70095
G1 X63.462 Y142.343 E8.71948
G1 X63.991 Y142.157 E8.73813
G1 X64.465 Y141.859 E8.75675
G1 X64.86 Y141.464 E8.77533
G1 X65.156 Y140.991 E8.79389
G1 X65.35 Y140.445 E8.81316
G1 X65.395 Y139.815 E8.83417
G1 X65.341 Y139.351 E8.84971
G1 X65.157 Y138.825 E8.86824
G1 X64.858 Y138.351 E8.88688
G1 X64.463 Y137.956 E8.90546
G1 X63.991 Y137.66 E8.92399
G1 X63.465 Y137.476 E8.94253
G1 X62.908 Y137.412 E8.96117
G1 X62.351 Y137.476 E8.97982
G1 X61.825 Y137.66 E8.99836
G1 X61.388 Y137.935 E9.01553
G1 X61.59 Y137.738 E9.02491
G1 X61.983 Y137.398 E9.0422
G1 X62.646 Y136.881 E9.07016
G1 X63.126 Y136.551 E9.08954
G1 X63.827 Y136.118 E9.11694
G1 X64.273 Y135.88 E9.13375
G1 X65.085 Y135.496 E9.16363
G1 X65.574 Y135.3 E9.18115
G1 X66.353 Y135.034 E9.20853
G1 X66.892 Y134.884 E9.22714
G1 X67.711 Y134.713 E9.25497
G1 X68.163 Y134.626 E9.27027
G1 X68.714 Y134.558 E9.28874
G1 X69.536 Y134.499 E9.31615
G1 X70.08 Y134.492 E9.33425
G1 X70.944 Y134.527 E9.36301
G1 X71.482 Y134.58 E9.38099
G1 X72.324 Y134.72 E9.40938
G1 X72.845 Y134.821 E9.42703
G1 X73.656 Y135.037 E9.45494
G1 X74.17 Y135.208 E9.47296
G1 X74.937 Y135.507 E9.50034
G1 X75.475 Y135.754 E9.52003
G1 X76.193 Y136.13 E9.54699
G1 X76.644 Y136.403 E9.56452
G1 X77.351 Y136.879 E9.59287
G1 X77.804 Y137.227 E9.61187
G1 X78.436 Y137.761 E9.63939
G1 X78.623 Y137.942 E9.64804
G1 X78.175 Y137.66 E9.66565
G1 X77.649 Y137.476 E9.68418
G1 X77.092 Y137.412 E9.70283
G1 X76.535 Y137.476 E9.72148
G1 X76.009 Y137.66 E9.74001
G1 X75.537 Y137.956 E9.75854
G1 X75.142 Y138.351 E9.77712
G1 X74.843 Y138.825 E9.79576
G1 X74.689 Y139.265 E9.81127
G1 X74.593 Y139.888 E9.83223
G1 X74.659 Y140.465 E9.85155
G1 X74.843 Y140.991 E9.87008
G1 X75.14 Y141.465 E9.88869
G1 X75.535 Y141.86 E9.90727
G1 X76.009 Y142.157 E9.92587
G1 X76.538 Y142.343 E9.94452
G1 X77.092 Y142.403 E9.96306
G1 X77.646 Y142.343 E9.98159
G1 X78.176 Y142.157 E10.00027
G1 X78.649 Y141.858 E10.01888
G1 X79.044 Y141.463 E10.03746
G1 X79.339 Y140.991 E10.05598
G1 X79.532 Y140.446 E10.07521
G1 X79.579 Y139.814 E10.09628
